X: 35134
T: Romance
R: waltz
M: 3/4
K: Aminor
|:E2|"Am"e2 e3e|e2 d3c|c2 B2 A2|A3c e2|
a2 a3 a/^g/|a3g ed/c/|"Dm"d2 d3d/^c/|d3e f2|
"E7"e3f e2|"E7/G#"^g2 f2 e2|"Am"e3d c2|"Am/C"c3B BA|
"E7"B3B B2|"E7/G#"B2 c2 B2|"Am"A2 A2 A2|A2 A2:|

